assets/Artist palette/Flat/artist_palette_flat.svg

<svg width="32" height="32" viewBox="0 0 32 32" fill="none" xmlns="http://www.w3.org/2000/svg">
<path d="M21.9929 5.85409C15.2863 2.43446 7.33699 3.7544 3.71413 9.73704C0.091264 15.7197 2.39838 23.68 8.86974 27.5177C12.0495 29.4027 17.1822 31.3284 19.2678 28.7608C21.3122 26.2453 18.2964 24.6515 19 23.2593C20.133 21.0194 25.2 23.958 28.5145 20.3372C32.2493 16.2553 28.5237 9.18556 21.9929 5.85409ZM24 19C22.2548 19 21 17.7268 21 16C21 14.2732 22.2548 13 24 13C25.7452 13 27 14.2732 27 16C27 17.7268 25.7452 19 24 19Z" fill="#FBB8AB"/>
<path d="M14.25 11C15.4926 11 16.5 9.99264 16.5 8.75C16.5 7.50736 15.4926 6.5 14.25 6.5C13.0074 6.5 12 7.50736 12 8.75C12 9.99264 13.0074 11 14.25 11Z" fill="#8D65C5"/>
<path d="M8.25 15C9.49264 15 10.5 13.9926 10.5 12.75C10.5 11.5074 9.49264 10.5 8.25 10.5C7.00736 10.5 6 11.5074 6 12.75C6 13.9926 7.00736 15 8.25 15Z" fill="#F70A8D"/>
<path d="M8.25 22C9.49264 22 10.5 20.9926 10.5 19.75C10.5 18.5074 9.49264 17.5 8.25 17.5C7.00736 17.5 6 18.5074 6 19.75C6 20.9926 7.00736 22 8.25 22Z" fill="#00D26A"/>
<path d="M13.75 26.5C14.9926 26.5 16 25.4926 16 24.25C16 23.0074 14.9926 22 13.75 22C12.5074 22 11.5 23.0074 11.5 24.25C11.5 25.4926 12.5074 26.5 13.75 26.5Z" fill="#3F5FFF"/>
</svg>

<svg xmlns="http://www.w3.org/2000/svg" width="32" height="32" fill="none"><path fill="#FBB8AB" d="M21.993 5.854c-6.707-3.42-14.656-2.1-18.279 3.883C.091 15.72 2.398 23.68 8.87 27.517c3.18 1.886 8.312 3.811 10.398 1.244 2.044-2.516-.972-4.11-.268-5.502 1.133-2.24 6.2.699 9.515-2.922 3.734-4.082.009-11.151-6.522-14.483ZM24 19c-1.745 0-3-1.273-3-3s1.255-3 3-3 3 1.273 3 3-1.255 3-3 3Z"/><path fill="#8D65C5" d="M14.25 11a2.25 2.25 0 1 0 0-4.5 2.25 2.25 0 0 0 0 4.5Z"/><path fill="#F70A8D" d="M8.25 15a2.25 2.25 0 1 0 0-4.5 2.25 2.25 0 0 0 0 4.5Z"/><path fill="#00D26A" d="M8.25 22a2.25 2.25 0 1 0 0-4.5 2.25 2.25 0 0 0 0 4.5Z"/><path fill="#3F5FFF" d="M13.75 26.5a2.25 2.25 0 1 0 0-4.5 2.25 2.25 0 0 0 0 4.5Z"/></svg>
